projects/vfh1/img/icons/arrow-title.svg

<svg viewBox="0 0 30 46" fill="none" xmlns="http://www.w3.org/2000/svg">
<path fill="currentColor" d="M17 2C17 0.89543 16.1046 -4.82823e-08 15 0C13.8954 4.82823e-08 13 0.895431 13 2L17 2ZM13.5858 45.4142C14.3668 46.1953 15.6332 46.1953 16.4142 45.4142L29.1421 32.6863C29.9232 31.9052 29.9232 30.6389 29.1421 29.8579C28.3611 29.0768 27.0948 29.0768 26.3137 29.8579L15 41.1716L3.68629 29.8579C2.90524 29.0768 1.63891 29.0768 0.857866 29.8579C0.0768169 30.6389 0.0768169 31.9052 0.857866 32.6863L13.5858 45.4142ZM13 2L13 44L17 44L17 2L13 2Z"/>
</svg>

<svg viewBox="0 0 30 46" fill="none" xmlns="http://www.w3.org/2000/svg"><path fill="currentColor" d="M17 2a2 2 0 10-4 0h4zm-3.414 43.414a2 2 0 002.828 0l12.728-12.728a2 2 0 10-2.828-2.828L15 41.172 3.686 29.858a2 2 0 10-2.828 2.828l12.728 12.728zM13 2v42h4V2h-4z"/></svg>
